X: 19073
T: Irish Coffee
R: jig
M: 6/8
K: Gmajor
|:D|GFG GDG|GFG ABA|Jc3c2 d|BAF FED|
GFG GDG|GFG ABA|cAF DEF|G3 G2:|
d|d^cd dBG|DGB d^cd|=cBc cAF|ded dBA|
d^cd dBG|DGB d^cd|=cAF DEF|G3 G2 d|
d^cd dBG|DGB de=f|ecc Gcc|edc ~B3|
d^cd dBG|DGB d^cd|=cAF DEF|G3 G2||

